static/regulator.svg

<svg fill="none" height="120" viewBox="0 0 120 120" width="120" xmlns="http://www.w3.org/2000/svg"><path d="m46.2022 45.5732h27.5956v27.5955h-27.5956z" fill="#d8440d"/><path d="m46.2022 45.5732h27.5956v27.5955h-27.5956z" fill="#e65100"/><path d="m46.2022 45.5732h27.5956v27.5955h-27.5956z" fill="#1976d2"/><path d="m46.2022 45.5732h27.5956v27.5955h-27.5956z" fill="#3173f1"/><path d="m61.3802 24.8767 33.1146 33.1146v-33.1146z" fill="#d8440d"/><path d="m61.3802 24.8767 33.1146 33.1146v-33.1146z" fill="#e65100"/><path d="m61.3802 24.8767 33.1146 33.1146v-33.1146z" fill="#1976d2"/><path d="m61.3802 24.8767 33.1146 33.1146v-33.1146z" fill="#3173f1"/><path d="m83.416.0004172-46.8312.00001184 23.4156 23.41557096z" fill="#d8440d"/><path d="m83.416.0004172-46.8312.00001184 23.4156 23.41557096z" fill="#e65100"/><path d="m83.416.0004172-46.8312.00001184 23.4156 23.41557096z" fill="#1976d2"/><path d="m83.416.0004172-46.8312.00001184 23.4156 23.41557096z" fill="#3173f1"/><path d="m120 36.584v46.8312l-23.416-23.4156z" fill="#d8440d"/><path d="m120 36.584v46.8312l-23.416-23.4156z" fill="#e65100"/><path d="m120 36.584v46.8312l-23.416-23.4156z" fill="#1976d2"/><path d="m120 36.584v46.8312l-23.416-23.4156z" fill="#3173f1"/><path d="m36.584 120h46.8311l-23.4155-23.416z" fill="#d8440d"/><path d="m36.584 120h46.8311l-23.4155-23.416z" fill="#e65100"/><path d="m36.584 120h46.8311l-23.4155-23.416z" fill="#1976d2"/><path d="m36.584 120h46.8311l-23.4155-23.416z" fill="#3173f1"/><path d="m.00043055 83.416.00001579-46.8312 23.41555366 23.4156z" fill="#d8440d"/><path d="m.00043055 83.416.00001579-46.8312 23.41555366 23.4156z" fill="#e65100"/><path d="m.00043055 83.416.00001579-46.8312 23.41555366 23.4156z" fill="#1976d2"/><path d="m.00043055 83.416.00001579-46.8312 23.41555366 23.4156z" fill="#3173f1"/><path d="m25.5065 57.9909 33.1147-33.1146h-33.1147z" fill="#d8440d"/><path d="m25.5065 57.9909 33.1147-33.1146h-33.1147z" fill="#e65100"/><path d="m25.5065 57.9909 33.1147-33.1146h-33.1147z" fill="#1976d2"/><path d="m25.5065 57.9909 33.1147-33.1146h-33.1147z" fill="#3173f1"/><path d="m58.6198 93.8655-33.1146-33.1146v33.1146z" fill="#d8440d"/><path d="m58.6198 93.8655-33.1146-33.1146v33.1146z" fill="#e65100"/><path d="m58.6198 93.8655-33.1146-33.1146v33.1146z" fill="#1976d2"/><path d="m58.6198 93.8655-33.1146-33.1146v33.1146z" fill="#3173f1"/><path d="m94.4935 60.7513-33.1147 33.1146h33.1147z" fill="#d8440d"/><path d="m94.4935 60.7513-33.1147 33.1146h33.1147z" fill="#e65100"/><path d="m94.4935 60.7513-33.1147 33.1146h33.1147z" fill="#1976d2"/><path d="m94.4935 60.7513-33.1147 33.1146h33.1147z" fill="#3173f1"/></svg>

<svg width="120" height="120" viewBox="0 0 120 120" fill="none" xmlns="http://www.w3.org/2000/svg">
<path d="M46.2022 45.5732L73.7978 45.5732L73.7978 73.1687L46.2022 73.1687L46.2022 45.5732Z" fill="#D8440D"/>
<path d="M46.2022 45.5732L73.7978 45.5732L73.7978 73.1687L46.2022 73.1687L46.2022 45.5732Z" fill="#E65100"/>
<path d="M46.2022 45.5732L73.7978 45.5732L73.7978 73.1687L46.2022 73.1687L46.2022 45.5732Z" fill="#1976D2"/>
<path d="M46.2022 45.5732L73.7978 45.5732L73.7978 73.1687L46.2022 73.1687L46.2022 45.5732Z" fill="#3173F1"/>
<path d="M61.3802 24.8767L94.4948 57.9913L94.4948 24.8767L61.3802 24.8767Z" fill="#D8440D"/>
<path d="M61.3802 24.8767L94.4948 57.9913L94.4948 24.8767L61.3802 24.8767Z" fill="#E65100"/>
<path d="M61.3802 24.8767L94.4948 57.9913L94.4948 24.8767L61.3802 24.8767Z" fill="#1976D2"/>
<path d="M61.3802 24.8767L94.4948 57.9913L94.4948 24.8767L61.3802 24.8767Z" fill="#3173F1"/>
<path d="M83.416 0.000417198L36.5848 0.00042904L60.0004 23.416L83.416 0.000417198Z" fill="#D8440D"/>
<path d="M83.416 0.000417198L36.5848 0.00042904L60.0004 23.416L83.416 0.000417198Z" fill="#E65100"/>
<path d="M83.416 0.000417198L36.5848 0.00042904L60.0004 23.416L83.416 0.000417198Z" fill="#1976D2"/>
<path d="M83.416 0.000417198L36.5848 0.00042904L60.0004 23.416L83.416 0.000417198Z" fill="#3173F1"/>
<path d="M120 36.584L120 83.4152L96.584 59.9996L120 36.584Z" fill="#D8440D"/>
<path d="M120 36.584L120 83.4152L96.584 59.9996L120 36.584Z" fill="#E65100"/>
<path d="M120 36.584L120 83.4152L96.584 59.9996L120 36.584Z" fill="#1976D2"/>
<path d="M120 36.584L120 83.4152L96.584 59.9996L120 36.584Z" fill="#3173F1"/>
<path d="M36.584 120L83.4151 120L59.9996 96.584L36.584 120Z" fill="#D8440D"/>
<path d="M36.584 120L83.4151 120L59.9996 96.584L36.584 120Z" fill="#E65100"/>
<path d="M36.584 120L83.4151 120L59.9996 96.584L36.584 120Z" fill="#1976D2"/>
<path d="M36.584 120L83.4151 120L59.9996 96.584L36.584 120Z" fill="#3173F1"/>
<path d="M0.000430549 83.416L0.000446339 36.5848L23.416 60.0004L0.000430549 83.416Z" fill="#D8440D"/>
<path d="M0.000430549 83.416L0.000446339 36.5848L23.416 60.0004L0.000430549 83.416Z" fill="#E65100"/>
<path d="M0.000430549 83.416L0.000446339 36.5848L23.416 60.0004L0.000430549 83.416Z" fill="#1976D2"/>
<path d="M0.000430549 83.416L0.000446339 36.5848L23.416 60.0004L0.000430549 83.416Z" fill="#3173F1"/>
<path d="M25.5065 57.9909L58.6212 24.8763L25.5065 24.8763L25.5065 57.9909Z" fill="#D8440D"/>
<path d="M25.5065 57.9909L58.6212 24.8763L25.5065 24.8763L25.5065 57.9909Z" fill="#E65100"/>
<path d="M25.5065 57.9909L58.6212 24.8763L25.5065 24.8763L25.5065 57.9909Z" fill="#1976D2"/>
<path d="M25.5065 57.9909L58.6212 24.8763L25.5065 24.8763L25.5065 57.9909Z" fill="#3173F1"/>
<path d="M58.6198 93.8655L25.5052 60.7509L25.5052 93.8655L58.6198 93.8655Z" fill="#D8440D"/>
<path d="M58.6198 93.8655L25.5052 60.7509L25.5052 93.8655L58.6198 93.8655Z" fill="#E65100"/>
<path d="M58.6198 93.8655L25.5052 60.7509L25.5052 93.8655L58.6198 93.8655Z" fill="#1976D2"/>
<path d="M58.6198 93.8655L25.5052 60.7509L25.5052 93.8655L58.6198 93.8655Z" fill="#3173F1"/>
<path d="M94.4935 60.7513L61.3788 93.8659L94.4935 93.8659L94.4935 60.7513Z" fill="#D8440D"/>
<path d="M94.4935 60.7513L61.3788 93.8659L94.4935 93.8659L94.4935 60.7513Z" fill="#E65100"/>
<path d="M94.4935 60.7513L61.3788 93.8659L94.4935 93.8659L94.4935 60.7513Z" fill="#1976D2"/>
<path d="M94.4935 60.7513L61.3788 93.8659L94.4935 93.8659L94.4935 60.7513Z" fill="#3173F1"/>
</svg>
